src/images/explore.svg

<svg width="24" height="24" viewBox="0 0 24 24" fill="none" xmlns="http://www.w3.org/2000/svg">
<path d="M22.2085 6.43374H17.6235L18.0575 1.44974C18.0995 0.969073 17.7425 0.545577 17.2618 0.502411C16.7753 0.467411 16.3565 0.817409 16.3145 1.29924L15.8677 6.43257H8.49433L8.92599 1.4509C8.96916 0.969064 8.61099 0.545577 8.13266 0.502411C7.64266 0.467411 7.22616 0.817409 7.18416 1.29924L6.73849 6.43257H2.12083C1.63783 6.43257 1.24583 6.82574 1.24583 7.30757C1.24583 7.7894 1.63783 8.18257 2.12083 8.18257H6.58683L5.94516 15.5641H1.2085C0.725496 15.5641 0.333496 15.9561 0.333496 16.4391C0.333496 16.9221 0.725496 17.3141 1.2085 17.3141H5.7935L5.35949 22.2981C5.31749 22.7787 5.67449 23.2022 6.15516 23.2454L6.23216 23.2489C6.68133 23.2489 7.06283 22.9047 7.1025 22.4486L7.54933 17.3152H14.9227L14.491 22.2969C14.449 22.7787 14.806 23.2022 15.2867 23.2454L15.3637 23.2489C15.8128 23.2489 16.1943 22.9047 16.234 22.4486L16.6797 17.3152H21.2962C21.778 17.3152 22.1712 16.9221 22.1712 16.4402C22.1712 15.9584 21.778 15.5652 21.2962 15.5652H16.8302L17.4718 8.18374H22.2085C22.6915 8.18374 23.0835 7.79174 23.0835 7.30874C23.0835 6.82574 22.6915 6.43374 22.2085 6.43374ZM15.0743 15.5641H7.701L8.34266 8.18374H15.716L15.0743 15.5641Z" fill="black"/>
</svg>

<svg width="24" height="24" fill="none" xmlns="http://www.w3.org/2000/svg"><path d="M22.209 6.434h-4.585l.434-4.984a.876.876 0 0 0-.796-.948.877.877 0 0 0-.948.797l-.446 5.134H8.494l.432-4.982a.876.876 0 0 0-.793-.949.876.876 0 0 0-.949.797l-.446 5.134H2.121a.876.876 0 0 0 0 1.75h4.466l-.642 7.381H1.208a.875.875 0 0 0 0 1.75h4.585l-.434 4.984a.876.876 0 0 0 .796.947l.077.004c.45 0 .83-.344.87-.8l.447-5.134h7.374l-.432 4.982a.877.877 0 0 0 .796.948l.077.004c.449 0 .83-.344.87-.8l.446-5.134h4.616a.877.877 0 0 0 .875-.875.877.877 0 0 0-.875-.875H16.83l.642-7.381h4.736a.875.875 0 0 0 0-1.75Zm-7.135 9.13H7.701l.642-7.38h7.373l-.642 7.38Z" fill="#000"/></svg>
